Newaita-dark/apps/24/gnome-nibbles.svg

<svg height="24" viewBox="0 0 24 24" width="24" xmlns="http://www.w3.org/2000/svg" xmlns:xlink="http://www.w3.org/1999/xlink"><linearGradient id="a" gradientUnits="userSpaceOnUse" x1="11.90739" x2="11.90739" y1="21.02545225" y2="22.01773525002"><stop offset="0" stop-opacity=".27451"/><stop offset="1" stop-opacity="0"/></linearGradient><linearGradient id="b"><stop offset="0" stop-opacity=".313726"/><stop offset=".222222" stop-opacity=".27451"/><stop offset="1" stop-opacity="0"/></linearGradient><radialGradient id="c" cx="450.908936" cy="189.579361" gradientTransform="matrix(.00000013 -.0585994 -.105479 -.00000008 39.097986 47.696499)" gradientUnits="userSpaceOnUse" r="21.166656" xlink:href="#b"/><radialGradient id="d" cx="450.908936" cy="189.579361" gradientTransform="matrix(-.00000013 .0585994 .105479 .00000008 -15.28321 -5.645609)" gradientUnits="userSpaceOnUse" r="21.166656" xlink:href="#b"/><radialGradient id="e" cx="450.908936" cy="189.579361" gradientTransform="matrix(-.00000013 -.0585994 .105479 -.00000008 -15.28321 47.696499)" gradientUnits="userSpaceOnUse" r="21.166656" xlink:href="#b"/><radialGradient id="f" cx="450.908936" cy="189.579361" gradientTransform="matrix(.00000013 .0585994 -.105479 .00000008 39.097985 -5.64561)" gradientUnits="userSpaceOnUse" r="21.166656" xlink:href="#b"/><linearGradient id="g" gradientUnits="userSpaceOnUse" x1="7.93826174998" x2="7.93826174998" y1="21.02545025" y2="2.17207850005"><stop offset="0" stop-color="#424242"/><stop offset="1" stop-color="#616161"/></linearGradient><linearGradient id="h" gradientUnits="userSpaceOnUse" x1="7.19403" x2="7.19403" y1="16.06399814717" y2="14.32750814717"><stop offset="0" stop-color="#ef5350"/><stop offset="1" stop-color="#e57373"/></linearGradient><path d="m4.464844 20.953125h14.882812v1.101563h-14.882812zm0 0" fill="url(#a)"/><path d="m19.347656 21.027344h1.988282v-.996094h-1.988282zm0 0" fill="url(#c)"/><path d="m4.464844 21.027344h-1.984375v.992187h1.984375zm0 0" fill="url(#d)"/><path d="m4.464844 21.027344h-1.984375v-.996094h1.984375zm0 0" fill="url(#e)"/><path d="m19.347656 21.027344h1.988282v.992187h-1.988282zm0 0" fill="url(#f)"/><path d="m3.472656 2.171875h16.867188c.550781 0 .996094.445313.996094.992187v16.867188c0 .550781-.445313.996094-.996094.996094h-16.867188c-.546875 0-.992187-.445313-.992187-.996094v-16.867188c0-.546874.445312-.992187.992187-.992187zm0 0" fill="url(#g)"/><path d="m3.472656 2.171875c-.550781 0-.992187.441406-.992187.992187v.125c0-.550781.441406-.992187.992187-.992187h16.867188c.550781 0 .996094.441406.996094.992187v-.125c0-.550781-.445313-.992187-.996094-.992187zm0 0" fill="#e6e6e6" fill-opacity=".392157"/><path d="m3.472656 21.027344c-.550781 0-.992187-.445313-.992187-.996094v-.121094c0 .546875.441406.992188.992187.992188h16.867188c.550781 0 .996094-.445313.996094-.992188v.121094c0 .550781-.445313.996094-.996094.996094zm0 0" fill-opacity=".196078"/><path d="m74.076259-168.671091h359.798975c11.748878 0 21.247971 9.499093 21.247971 21.164646v359.798974c0 11.748878-9.499093 21.247971-21.247971 21.247971h-359.798975c-11.665552 0-21.164645-9.499093-21.164645-21.247971v-359.798974c0-11.665553 9.499093-21.164646 21.164645-21.164646zm0 0" fill="none" stroke="#212121" stroke-linecap="round" stroke-width="3" transform="matrix(.0468795 0 0 .0468795 0 10.079087)"/><path d="m7.195312 6.390625c-.277343 0-.496093.21875-.496093.496094v4.710937c0 .277344.21875.496094.496093.496094.273438 0 .496094-.21875.496094-.496094v-4.214844h3.71875v8.183594c0 .277344.195313.496094.4375.496094h4.773438c.273437 0 .496094-.21875.496094-.496094 0-.273437-.222657-.496094-.496094-.496094h-4.21875v-8.183593c0-.277344-.191406-.496094-.433594-.496094zm0 0" fill="#81c784"/><path d="m6.699219 14.328125c-.277344 0-.496094.21875-.496094.496094v.742187c0 .277344.21875.496094.496094.496094h.992187c.273438 0 .496094-.21875.496094-.496094v-.742187c0-.277344-.222656-.496094-.496094-.496094h-.25v.246094c0 .140625-.109375.25-.246094.25-.140624 0-.25-.109375-.25-.25v-.246094zm0 0" fill="url(#h)"/><path d="m7.195312 13.707031c.203126 0 .371094.167969.371094.371094v.375c0 .203125-.167968.371094-.371094.371094-.207031 0-.375-.167969-.375-.371094v-.375c0-.203125.167969-.371094.375-.371094zm0 0" fill="#689f38" fill-opacity=".995816"/><path d="m7.195312 13.707031c-.207031 0-.375.167969-.375.371094v.25c0-.207031.167969-.371094.375-.371094.203126 0 .371094.164063.371094.371094v-.25c0-.203125-.167968-.371094-.371094-.371094zm0 0" fill="#fff" fill-opacity=".392157"/><path d="m7.195312 6.390625c-.277343 0-.496093.21875-.496093.496094v.246093c0-.273437.21875-.496093.496093-.496093h4.773438c.242188 0 .433594.222656.433594.496093v-.246093c0-.277344-.191406-.496094-.433594-.496094zm5.207032 8.679687v.25h4.21875c.230468 0 .425781.15625.480468.371094.011719-.039062.015626-.082031.015626-.125 0-.273437-.222657-.496094-.496094-.496094zm0 0" fill="#fff" fill-opacity=".392157"/><path d="m7.691406 7.382812v.371094h3.71875v-.371094zm-.992187 4.214844v.375c0 .273438.21875.496094.496093.496094.273438 0 .496094-.222656.496094-.496094v-.375c0 .277344-.222656.496094-.496094.496094-.277343 0-.496093-.21875-.496093-.496094zm4.710937 3.96875v.375c0 .273438.195313.496094.4375.496094h4.773438c.273437 0 .496094-.222656.496094-.496094 0-.066406-.011719-.128906-.035157-.1875-.074219.183594-.253906.308594-.460937.308594h-4.773438c-.242187 0-.4375-.21875-.4375-.496094zm0 0" fill-opacity=".235294"/><path d="m153.485343-78.679685c-5.916102 0-10.582323 4.666221-10.582323 10.582323v100.490404c0 5.916102 4.666221 10.582323 10.582323 10.582323 5.832776 0 10.582323-4.666221 10.582323-10.582323v-89.908081h79.325758v174.566663c0 5.916102 4.166269 10.582323 9.332442 10.582323h101.82361c5.832776 0 10.582322-4.666221 10.582322-10.582323 0-5.832776-4.749546-10.582323-10.582322-10.582323h-89.991407v-174.566663c0-5.916102-4.082943-10.582323-9.249116-10.582323zm0 0" fill="none" stroke="#212121" stroke-linecap="square" stroke-linejoin="bevel" stroke-width="3" transform="matrix(.0468795 0 0 .0468795 0 10.079087)"/><path d="m6.699219 14.328125c-.277344 0-.496094.21875-.496094.496094v.246093c0-.273437.21875-.496093.496094-.496093h.246093v-.246094zm.742187 0v.246094h.25c.273438 0 .496094.222656.496094.496093v-.246093c0-.277344-.222656-.496094-.496094-.496094zm-.496094.246094v.25c0 .136719.109376.246093.25.246093.136719 0 .246094-.109374.246094-.246093v-.25c0 .140625-.109375.25-.246094.25-.140624 0-.25-.109375-.25-.25zm0 0" fill="#fff" fill-opacity=".392157"/><path d="m6.203125 15.566406v.375c0 .273438.21875.496094.496094.496094h.992187c.273438 0 .496094-.222656.496094-.496094v-.375c0 .277344-.222656.496094-.496094.496094h-.992187c-.277344 0-.496094-.21875-.496094-.496094zm0 0" fill-opacity=".235294"/><g stroke="#212121" stroke-linecap="square" stroke-linejoin="bevel"><path d="m540.105931 1155.165338c-22.36007 0-39.996182 17.636113-39.996182 39.996183v59.836809c0 22.36007 17.636112 39.996183 39.996182 39.996183h79.992365c22.045141 0 39.996183-17.636113 39.996183-39.996183v-59.836809c0-22.36007-17.951042-39.996183-39.996183-39.996183h-20.155556v19.840627c0 11.3375-8.818056 20.155556-19.840626 20.155556-11.337501 0-20.155557-8.818056-20.155557-20.155556v-19.840627zm0 0" fill="none" stroke-width="11.338583" transform="scale(.0124035)"/><path d="m153.485343 77.388745c4.332919 0 7.915911 3.582991 7.915911 7.915911v7.999236c0 4.332919-3.582992 7.915911-7.915911 7.915911-4.416245 0-7.999236-3.582992-7.999236-7.915911v-7.999236c0-4.33292 3.582991-7.915911 7.999236-7.915911zm0 0" fill="#689f38" fill-opacity=".995816" stroke-width="3" transform="matrix(.0468795 0 0 .0468795 0 10.079087)"/></g></svg>

<?xml version="1.0" encoding="UTF-8"?>
<svg xmlns="http://www.w3.org/2000/svg" xmlns:xlink="http://www.w3.org/1999/xlink" width="24px" height="24px" viewBox="0 0 24 24" version="1.1">
<defs>
<linearGradient id="linear0" gradientUnits="userSpaceOnUse" x1="254" y1="233.5" x2="254" y2="254.666672" gradientTransform="matrix(0.0468795,0,0,0.0468795,-0.0000028613,10.079089)">
<stop offset="0" style="stop-color:rgb(0%,0%,0%);stop-opacity:0.27451;"/>
<stop offset="1" style="stop-color:rgb(0%,0%,0%);stop-opacity:0;"/>
</linearGradient>
<radialGradient id="radial0" gradientUnits="userSpaceOnUse" cx="450.908936" cy="189.579361" fx="450.908936" fy="189.579361" r="21.166656" gradientTransform="matrix(0.000000130628,-0.0585994,-0.105479,-0.0000000761539,39.097986,47.696499)">
<stop offset="0" style="stop-color:rgb(0%,0%,0%);stop-opacity:0.313726;"/>
<stop offset="0.222222" style="stop-color:rgb(0%,0%,0%);stop-opacity:0.27451;"/>
<stop offset="1" style="stop-color:rgb(0%,0%,0%);stop-opacity:0;"/>
</radialGradient>
<radialGradient id="radial1" gradientUnits="userSpaceOnUse" cx="450.908936" cy="189.579361" fx="450.908936" fy="189.579361" r="21.166656" gradientTransform="matrix(-0.000000130628,0.0585994,0.105479,0.0000000761539,-15.28321,-5.645609)">
<stop offset="0" style="stop-color:rgb(0%,0%,0%);stop-opacity:0.313726;"/>
<stop offset="0.222222" style="stop-color:rgb(0%,0%,0%);stop-opacity:0.27451;"/>
<stop offset="1" style="stop-color:rgb(0%,0%,0%);stop-opacity:0;"/>
</radialGradient>
<radialGradient id="radial2" gradientUnits="userSpaceOnUse" cx="450.908936" cy="189.579361" fx="450.908936" fy="189.579361" r="21.166656" gradientTransform="matrix(-0.000000130628,-0.0585994,0.105479,-0.0000000761539,-15.28321,47.696499)">
<stop offset="0" style="stop-color:rgb(0%,0%,0%);stop-opacity:0.313726;"/>
<stop offset="0.222222" style="stop-color:rgb(0%,0%,0%);stop-opacity:0.27451;"/>
<stop offset="1" style="stop-color:rgb(0%,0%,0%);stop-opacity:0;"/>
</radialGradient>
<radialGradient id="radial3" gradientUnits="userSpaceOnUse" cx="450.908936" cy="189.579361" fx="450.908936" fy="189.579361" r="21.166656" gradientTransform="matrix(0.000000130628,0.0585994,-0.105479,0.0000000761539,39.097985,-5.64561)">
<stop offset="0" style="stop-color:rgb(0%,0%,0%);stop-opacity:0.313726;"/>
<stop offset="0.222222" style="stop-color:rgb(0%,0%,0%);stop-opacity:0.27451;"/>
<stop offset="1" style="stop-color:rgb(0%,0%,0%);stop-opacity:0;"/>
</radialGradient>
<linearGradient id="linear1" gradientUnits="userSpaceOnUse" x1="169.333328" y1="233.5" x2="169.333328" y2="-168.666656" gradientTransform="matrix(0.0468795,0,0,0.0468795,0,10.079087)">
<stop offset="0" style="stop-color:rgb(25.882354%,25.882354%,25.882354%);stop-opacity:1;"/>
<stop offset="1" style="stop-color:rgb(38.039216%,38.039216%,38.039216%);stop-opacity:1;"/>
</linearGradient>
<linearGradient id="linear2" gradientUnits="userSpaceOnUse" x1="580" y1="1295.118164" x2="580" y2="1155.118164" gradientTransform="matrix(0.0124035,0,0,0.0124035,0,0.00000000000000141)">
<stop offset="0" style="stop-color:rgb(93.725491%,32.549021%,31.37255%);stop-opacity:1;"/>
<stop offset="1" style="stop-color:rgb(89.803922%,45.09804%,45.09804%);stop-opacity:1;"/>
</linearGradient>
</defs>
<g id="surface1">
<path style=" stroke:none;fill-rule:nonzero;fill:url(#linear0);" d="M 4.464844 20.953125 L 19.347656 20.953125 L 19.347656 22.054688 L 4.464844 22.054688 Z M 4.464844 20.953125 "/>
<path style=" stroke:none;fill-rule:nonzero;fill:url(#radial0);" d="M 19.347656 21.027344 L 21.335938 21.027344 L 21.335938 20.03125 L 19.347656 20.03125 Z M 19.347656 21.027344 "/>
<path style=" stroke:none;fill-rule:nonzero;fill:url(#radial1);" d="M 4.464844 21.027344 L 2.480469 21.027344 L 2.480469 22.019531 L 4.464844 22.019531 Z M 4.464844 21.027344 "/>
<path style=" stroke:none;fill-rule:nonzero;fill:url(#radial2);" d="M 4.464844 21.027344 L 2.480469 21.027344 L 2.480469 20.03125 L 4.464844 20.03125 Z M 4.464844 21.027344 "/>
<path style=" stroke:none;fill-rule:nonzero;fill:url(#radial3);" d="M 19.347656 21.027344 L 21.335938 21.027344 L 21.335938 22.019531 L 19.347656 22.019531 Z M 19.347656 21.027344 "/>
<path style=" stroke:none;fill-rule:nonzero;fill:url(#linear1);" d="M 3.472656 2.171875 L 20.339844 2.171875 C 20.890625 2.171875 21.335938 2.617188 21.335938 3.164062 L 21.335938 20.03125 C 21.335938 20.582031 20.890625 21.027344 20.339844 21.027344 L 3.472656 21.027344 C 2.925781 21.027344 2.480469 20.582031 2.480469 20.03125 L 2.480469 3.164062 C 2.480469 2.617188 2.925781 2.171875 3.472656 2.171875 Z M 3.472656 2.171875 "/>
<path style=" stroke:none;fill-rule:nonzero;fill:rgb(90.196079%,90.196079%,90.196079%);fill-opacity:0.392157;" d="M 3.472656 2.171875 C 2.921875 2.171875 2.480469 2.613281 2.480469 3.164062 L 2.480469 3.289062 C 2.480469 2.738281 2.921875 2.296875 3.472656 2.296875 L 20.339844 2.296875 C 20.890625 2.296875 21.335938 2.738281 21.335938 3.289062 L 21.335938 3.164062 C 21.335938 2.613281 20.890625 2.171875 20.339844 2.171875 Z M 3.472656 2.171875 "/>
<path style=" stroke:none;fill-rule:nonzero;fill:rgb(0%,0%,0%);fill-opacity:0.196078;" d="M 3.472656 21.027344 C 2.921875 21.027344 2.480469 20.582031 2.480469 20.03125 L 2.480469 19.910156 C 2.480469 20.457031 2.921875 20.902344 3.472656 20.902344 L 20.339844 20.902344 C 20.890625 20.902344 21.335938 20.457031 21.335938 19.910156 L 21.335938 20.03125 C 21.335938 20.582031 20.890625 21.027344 20.339844 21.027344 Z M 3.472656 21.027344 "/>
<path style="fill:none;stroke-width:3;stroke-linecap:round;stroke-linejoin:miter;stroke:rgb(12.941177%,12.941177%,12.941177%);stroke-opacity:1;stroke-miterlimit:4;" d="M 74.076259 -168.671091 L 433.875234 -168.671091 C 445.624112 -168.671091 455.123205 -159.171998 455.123205 -147.506445 L 455.123205 212.292529 C 455.123205 224.041407 445.624112 233.5405 433.875234 233.5405 L 74.076259 233.5405 C 62.410707 233.5405 52.911614 224.041407 52.911614 212.292529 L 52.911614 -147.506445 C 52.911614 -159.171998 62.410707 -168.671091 74.076259 -168.671091 Z M 74.076259 -168.671091 " transform="matrix(0.0468795,0,0,0.0468795,0,10.079087)"/>
<path style=" stroke:none;fill-rule:nonzero;fill:rgb(50.588238%,78.039217%,51.764709%);fill-opacity:1;" d="M 7.195312 6.390625 C 6.917969 6.390625 6.699219 6.609375 6.699219 6.886719 L 6.699219 11.597656 C 6.699219 11.875 6.917969 12.09375 7.195312 12.09375 C 7.46875 12.09375 7.691406 11.875 7.691406 11.597656 L 7.691406 7.382812 L 11.410156 7.382812 L 11.410156 15.566406 C 11.410156 15.84375 11.605469 16.0625 11.847656 16.0625 L 16.621094 16.0625 C 16.894531 16.0625 17.117188 15.84375 17.117188 15.566406 C 17.117188 15.292969 16.894531 15.070312 16.621094 15.070312 L 12.402344 15.070312 L 12.402344 6.886719 C 12.402344 6.609375 12.210938 6.390625 11.96875 6.390625 Z M 7.195312 6.390625 "/>
<path style=" stroke:none;fill-rule:nonzero;fill:url(#linear2);" d="M 6.699219 14.328125 C 6.421875 14.328125 6.203125 14.546875 6.203125 14.824219 L 6.203125 15.566406 C 6.203125 15.84375 6.421875 16.0625 6.699219 16.0625 L 7.691406 16.0625 C 7.964844 16.0625 8.1875 15.84375 8.1875 15.566406 L 8.1875 14.824219 C 8.1875 14.546875 7.964844 14.328125 7.691406 14.328125 L 7.441406 14.328125 L 7.441406 14.574219 C 7.441406 14.714844 7.332031 14.824219 7.195312 14.824219 C 7.054688 14.824219 6.945312 14.714844 6.945312 14.574219 L 6.945312 14.328125 Z M 6.699219 14.328125 "/>
<path style=" stroke:none;fill-rule:nonzero;fill:rgb(40.784314%,62.352943%,21.960784%);fill-opacity:0.995816;" d="M 7.195312 13.707031 C 7.398438 13.707031 7.566406 13.875 7.566406 14.078125 L 7.566406 14.453125 C 7.566406 14.65625 7.398438 14.824219 7.195312 14.824219 C 6.988281 14.824219 6.820312 14.65625 6.820312 14.453125 L 6.820312 14.078125 C 6.820312 13.875 6.988281 13.707031 7.195312 13.707031 Z M 7.195312 13.707031 "/>
<path style=" stroke:none;fill-rule:nonzero;fill:rgb(100%,100%,100%);fill-opacity:0.392157;" d="M 7.195312 13.707031 C 6.988281 13.707031 6.820312 13.875 6.820312 14.078125 L 6.820312 14.328125 C 6.820312 14.121094 6.988281 13.957031 7.195312 13.957031 C 7.398438 13.957031 7.566406 14.121094 7.566406 14.328125 L 7.566406 14.078125 C 7.566406 13.875 7.398438 13.707031 7.195312 13.707031 Z M 7.195312 13.707031 "/>
<path style=" stroke:none;fill-rule:nonzero;fill:rgb(100%,100%,100%);fill-opacity:0.392157;" d="M 7.195312 6.390625 C 6.917969 6.390625 6.699219 6.609375 6.699219 6.886719 L 6.699219 7.132812 C 6.699219 6.859375 6.917969 6.636719 7.195312 6.636719 L 11.96875 6.636719 C 12.210938 6.636719 12.402344 6.859375 12.402344 7.132812 L 12.402344 6.886719 C 12.402344 6.609375 12.210938 6.390625 11.96875 6.390625 Z M 12.402344 15.070312 L 12.402344 15.320312 L 16.621094 15.320312 C 16.851562 15.320312 17.046875 15.476562 17.101562 15.691406 C 17.113281 15.652344 17.117188 15.609375 17.117188 15.566406 C 17.117188 15.292969 16.894531 15.070312 16.621094 15.070312 Z M 12.402344 15.070312 "/>
<path style=" stroke:none;fill-rule:nonzero;fill:rgb(0%,0%,0%);fill-opacity:0.235294;" d="M 7.691406 7.382812 L 7.691406 7.753906 L 11.410156 7.753906 L 11.410156 7.382812 Z M 6.699219 11.597656 L 6.699219 11.972656 C 6.699219 12.246094 6.917969 12.46875 7.195312 12.46875 C 7.46875 12.46875 7.691406 12.246094 7.691406 11.972656 L 7.691406 11.597656 C 7.691406 11.875 7.46875 12.09375 7.195312 12.09375 C 6.917969 12.09375 6.699219 11.875 6.699219 11.597656 Z M 11.410156 15.566406 L 11.410156 15.941406 C 11.410156 16.214844 11.605469 16.4375 11.847656 16.4375 L 16.621094 16.4375 C 16.894531 16.4375 17.117188 16.214844 17.117188 15.941406 C 17.117188 15.875 17.105469 15.8125 17.082031 15.753906 C 17.007812 15.9375 16.828125 16.0625 16.621094 16.0625 L 11.847656 16.0625 C 11.605469 16.0625 11.410156 15.84375 11.410156 15.566406 Z M 11.410156 15.566406 "/>
<path style="fill:none;stroke-width:3;stroke-linecap:square;stroke-linejoin:bevel;stroke:rgb(12.941177%,12.941177%,12.941177%);stroke-opacity:1;stroke-miterlimit:4;" d="M 153.485343 -78.679685 C 147.569241 -78.679685 142.90302 -74.013464 142.90302 -68.097362 L 142.90302 32.393042 C 142.90302 38.309144 147.569241 42.975365 153.485343 42.975365 C 159.318119 42.975365 164.067666 38.309144 164.067666 32.393042 L 164.067666 -57.515039 L 243.393424 -57.515039 L 243.393424 117.051624 C 243.393424 122.967726 247.559693 127.633947 252.725866 127.633947 L 354.549476 127.633947 C 360.382252 127.633947 365.131798 122.967726 365.131798 117.051624 C 365.131798 111.218848 360.382252 106.469301 354.549476 106.469301 L 264.558069 106.469301 L 264.558069 -68.097362 C 264.558069 -74.013464 260.475126 -78.679685 255.308953 -78.679685 Z M 153.485343 -78.679685 " transform="matrix(0.0468795,0,0,0.0468795,0,10.079087)"/>
<path style=" stroke:none;fill-rule:nonzero;fill:rgb(100%,100%,100%);fill-opacity:0.392157;" d="M 6.699219 14.328125 C 6.421875 14.328125 6.203125 14.546875 6.203125 14.824219 L 6.203125 15.070312 C 6.203125 14.796875 6.421875 14.574219 6.699219 14.574219 L 6.945312 14.574219 L 6.945312 14.328125 Z M 7.441406 14.328125 L 7.441406 14.574219 L 7.691406 14.574219 C 7.964844 14.574219 8.1875 14.796875 8.1875 15.070312 L 8.1875 14.824219 C 8.1875 14.546875 7.964844 14.328125 7.691406 14.328125 Z M 6.945312 14.574219 L 6.945312 14.824219 C 6.945312 14.960938 7.054688 15.070312 7.195312 15.070312 C 7.332031 15.070312 7.441406 14.960938 7.441406 14.824219 L 7.441406 14.574219 C 7.441406 14.714844 7.332031 14.824219 7.195312 14.824219 C 7.054688 14.824219 6.945312 14.714844 6.945312 14.574219 Z M 6.945312 14.574219 "/>
<path style=" stroke:none;fill-rule:nonzero;fill:rgb(0%,0%,0%);fill-opacity:0.235294;" d="M 6.203125 15.566406 L 6.203125 15.941406 C 6.203125 16.214844 6.421875 16.4375 6.699219 16.4375 L 7.691406 16.4375 C 7.964844 16.4375 8.1875 16.214844 8.1875 15.941406 L 8.1875 15.566406 C 8.1875 15.84375 7.964844 16.0625 7.691406 16.0625 L 6.699219 16.0625 C 6.421875 16.0625 6.203125 15.84375 6.203125 15.566406 Z M 6.203125 15.566406 "/>
<path style="fill:none;stroke-width:11.338583;stroke-linecap:square;stroke-linejoin:bevel;stroke:rgb(12.941177%,12.941177%,12.941177%);stroke-opacity:1;stroke-miterlimit:4;" d="M 540.105931 1155.165338 C 517.745861 1155.165338 500.109749 1172.801451 500.109749 1195.161521 L 500.109749 1254.99833 C 500.109749 1277.3584 517.745861 1294.994513 540.105931 1294.994513 L 620.098296 1294.994513 C 642.143437 1294.994513 660.094479 1277.3584 660.094479 1254.99833 L 660.094479 1195.161521 C 660.094479 1172.801451 642.143437 1155.165338 620.098296 1155.165338 L 599.94274 1155.165338 L 599.94274 1175.005965 C 599.94274 1186.343465 591.124684 1195.161521 580.102114 1195.161521 C 568.764613 1195.161521 559.946557 1186.343465 559.946557 1175.005965 L 559.946557 1155.165338 Z M 540.105931 1155.165338 " transform="matrix(0.0124035,0,0,0.0124035,0,0)"/>
<path style="fill-rule:nonzero;fill:rgb(40.784314%,62.352943%,21.960784%);fill-opacity:0.995816;stroke-width:3;stroke-linecap:square;stroke-linejoin:bevel;stroke:rgb(12.941177%,12.941177%,12.941177%);stroke-opacity:1;stroke-miterlimit:4;" d="M 153.485343 77.388745 C 157.818262 77.388745 161.401254 80.971736 161.401254 85.304656 L 161.401254 93.303892 C 161.401254 97.636811 157.818262 101.219803 153.485343 101.219803 C 149.069098 101.219803 145.486107 97.636811 145.486107 93.303892 L 145.486107 85.304656 C 145.486107 80.971736 149.069098 77.388745 153.485343 77.388745 Z M 153.485343 77.388745 " transform="matrix(0.0468795,0,0,0.0468795,0,10.079087)"/>
</g>
</svg>
